X:210
T: Denis Donovan's
C: BB
R: hornpipe
Q: 1/8=320
M: 4/4
L: 1/8
K: G
(3DEF|"G"G2 BG DGBd|"D7"cAFA "Am"edcA|"G"G2 Bd "Am"cAEA|"D"FAEA D2 (3DEF |
"G"G2 BG DGBd|"Em"edBd efge|"G"dBGE "D"DFAc|"G"B2 "C"G2 "G"G2 :|
B2|"Am"ABcd "C"e2 cA|"G"GBdf g2 ge|"D"df (3fef af (3fef|"G"gfge dcBG |
"Am"ABcd "C"e2 cA|"G"GBdf g2 ga|"G"bgab "D7"afdc|"G"B2 "C"G2 "G"G2 :|
%%%%%%%%%%%%%%%%%%%%%%%%%%%%%%%%%%%%%%%%%%%
